X:98
T:Polska efter Pelle Fors
R:sl-polska
H:Efter Anselm och Allan Hellstr\"om
A:\"Osterg\"otland
Z:id:hn-sp-98
M:3/4
L:1/16
K:G
G3B AFAc BGBd | d2gf edef f2g2 | gece edBd dcBA | GFGB AGFE DCB,D |
G3B AFAc BGBd | d2gf edef f2g2 | gece edBd dcBA | GFDF A2G2 G4 :|
|: D2FA cAFA cAFA | G2Bd gdBd gdBd | D2FA cAFA cAFA | G2Bd gdBd gdBd |
d2gf edef f2g2 | d2gf edef f2g2 | gece edBd dcBA | GFDF A2G2 G4 :|

